X:1
T:New Land, The
C:Otis Tomas
R:waltz
Q:250
M:3/4
K:G %Transposed from F
G3 F GA|Bd3de|d3 BA2|G3 A (3BAG|c3 B AB|ce3eg|e3 cB2|A3 B (3cBA|
B3 G BG|Bd3 ga|b3 a g2|e3 f ga|b3 a g2|af3 dB|Bee2d2|1 e4 z2:|2 e3 fga|]
b3 a bc'|b2a2g2|c3 B cd|c2d2e2|a3 g ab|a2g2f2|B3 A Bc|B2c2d2|
g3 f ga|g2f2e2|A3 G AB|A2G2E2|d/2B7/2G2|A/2F7/2D2|E3 F GF|1 E3 fga:|2 E4 EF|]
